Apricity Icons/16/panel/clipboard.svg

<svg xmlns="http://www.w3.org/2000/svg" width="16" height="16" version="1.1">
 <defs>
  <style id="current-color-scheme" type="text/css">
   .ColorScheme-Text { color:#dfdfdf; } .ColorScheme-Highlight { color:#4285f4; }
  </style>
 </defs>
 <path style="fill:currentColor" class="ColorScheme-Text" d="M 12.874,2.0231 12.512,1.7133 C 11.974,1.2533 11.297,1 10.606,1 9.6824,1 8.821,1.4335 8.2425,2.1892 L 2.6757,9.463 C 2.1656,10.129 1.9321,10.965 2.0171,11.819 2.1022,12.671 2.4955,13.437 3.1258,13.976 L 3.488,14.286 C 4.0255,14.747 4.7025,15 5.3944,15 5.5012,15 5.6093,14.995 5.7156,14.983 6.5169,14.893 7.2388,14.481 7.7453,13.826 7.747,13.824 7.7479,13.822 11.501,8.9188 12.17,8.0455 12.041,6.7598 11.216,6.0529 L 11.026,5.8911 C 10.684,5.599 10.255,5.4382 9.8153,5.4382 9.229,5.4382 8.6822,5.7134 8.3153,6.1933 L 4.5662,11.091 C 4.3213,11.412 4.3682,11.882 4.671,12.141 4.7963,12.249 4.9539,12.308 5.1149,12.308 5.3293,12.308 5.5296,12.207 5.6645,12.031 L 9.4133,7.1329 C 9.511,7.0045 9.6567,6.931 9.8136,6.931 9.9327,6.931 10.044,6.9728 10.137,7.0518 L 10.326,7.2142 C 10.433,7.3052 10.5,7.4356 10.515,7.58 10.528,7.7252 10.489,7.867 10.402,7.9799 L 6.6583,12.872 C 6.3491,13.275 5.8888,13.507 5.3955,13.507 5.0257,13.507 4.6637,13.372 4.3764,13.126 L 4.0142,12.816 C 3.6784,12.529 3.4677,12.12 3.4224,11.664 3.3769,11.208 3.502,10.761 3.7747,10.404 L 9.3422,3.1308 C 9.6516,2.7269 10.112,2.4952 10.606,2.4952 10.976,2.4952 11.338,2.6306 11.625,2.8763 L 11.987,3.1861 C 12.682,3.7813 12.79,4.8637 12.227,5.5991 12.109,5.7542 12.054,5.9488 12.074,6.1473 12.094,6.3456 12.185,6.524 12.333,6.6494 12.458,6.7566 12.616,6.8157 12.776,6.8157 12.991,6.8157 13.191,6.7148 13.326,6.5388 13.835,5.8733 14.068,5.0368 13.983,4.1825 13.897,3.328 13.504,2.5614 12.874,2.0231 Z"/>
</svg>

<svg xmlns="http://www.w3.org/2000/svg" width="16" height="16"><defs><style id="current-color-scheme" type="text/css"></style></defs><path d="M12.874 2.023l-.362-.31A2.94 2.94 0 0 0 10.606 1c-.924 0-1.785.433-2.364 1.19L2.676 9.462a3.315 3.315 0 0 0-.659 2.356 3.24 3.24 0 0 0 1.109 2.157l.362.31a2.934 2.934 0 0 0 2.228.697 2.976 2.976 0 0 0 2.03-1.157L11.5 8.919c.669-.873.54-2.16-.285-2.866l-.19-.162a1.867 1.867 0 0 0-1.21-.453c-.587 0-1.134.275-1.5.755l-3.75 4.898a.777.777 0 0 0 .105 1.05.681.681 0 0 0 .994-.11l3.748-4.898a.493.493 0 0 1 .724-.081l.189.162a.552.552 0 0 1 .189.366.568.568 0 0 1-.113.4l-3.744 4.892c-.309.403-.77.635-1.263.635a1.57 1.57 0 0 1-1.019-.381l-.362-.31a1.729 1.729 0 0 1-.592-1.152c-.045-.456.08-.903.353-1.26l5.567-7.273c.31-.404.77-.636 1.264-.636.37 0 .732.136 1.019.381l.362.31c.695.595.803 1.678.24 2.413a.774.774 0 0 0 .106 1.05.684.684 0 0 0 .443.167.69.69 0 0 0 .55-.277 3.319 3.319 0 0 0 .657-2.356 3.244 3.244 0 0 0-1.109-2.16z" fill="currentColor" color="#dfdfdf"/></svg>
